X:198
T: ES WOLLT EIN JAEGER JAGEN EIN HIRSCHLEIN ODER EIN REH
N: Z0197
O: Europa, Mitteleuropa, Deutschland
R: Soldaten -, Jaeger - Lied, Romanze
M: 6/8
L: 1/16
K: G
D2 | G4A2B4G2 | d6-d4
c2 | B3AG2F4G2 | A6z4
G2 | d4d2B4G2 | g6d4
c2 | B3AG2A3GF2 | G6z4

@@@ Tune index: 9956
